X:1
T:Title
%%score { ( 1 3 4 ) | ( 2 5 6 ) }
L:1/8
M:12/8
K:Bb
V:1 treble nm="Grand Piano"
V:3 treble 
V:4 treble 
V:2 bass 
V:5 bass 
V:6 bass 
V:1
 z6 z3[Q:1/4=105] FDE | z3 B,B,B, z2 B [Fd]2 [Ec] | [DB]2 [EG] z2[K:bass] F, B,3[K:treble] BAB | %3
 c6- c2 z z3 | z3 [DB]6[K:bass][K:treble] z3 | z3 B,B,B, z2 B [Fd]2 [Ec] | %6
 z3 [DF]6[K:bass][K:treble] z3 | z3 c3 z6 |[M:9/8] [FA]2 G z2 D E3 |[M:3/8] F=EF | %10
[M:6/4] [Ec]3- [E-Fc-]2 [E-Fc-] [Ec]2 e d2 c | z2 z B3- B3 z z2 | .[GB]12 | %13
 z2 z [GB]3- [GB]3 z z2 | .[GB]12 | [DF]2 .[DB]3 B, B,3 dcB | z6 z2 z c3 |[M:9/8] B8- B |] %18
V:2
 z6 z3 DB,C | D6- D2 z z3 | [B,,F,]2 [B,,B,] [B,,B,]2 B,, B,,3 D_D=D | F6- F2[K:treble] z z3 | %4
 [B,,B,]2 [B,,B,] [B,,B,]2 B,, B,,3 DB,C | D6- D2 z z3 | %6
 [B,,F,]2 [B,,B,] [B,,B,]2 B,, B,,3[K:treble] DD_D | z3 F3[K:bass] z6 | %8
[M:9/8] [C,C]2 [C,B,C] [F,A,C]2 [F,B,] [F,C]3 |[M:3/8] A,_A,=A, | %10
[M:6/4] F,3 F,2 F, z2 C [B,F]2 [A,E] | [B,,B,]2 [B,,B,] B,,2 B,, B,,3[K:treble] G^FG | %12
 G,3 G,2[K:bass] G, z2 B, A,2 D | G,2 D, G,,2 G,, G,,3[K:treble] G^FG | E,3 E,2 E, z2 G [E,B,]3 | %15
 [B,,B,]2 [B,,F,] [B,,B,]2 B,, B,,3[K:treble] FED | %16
 [F,A,F]3 [A,F][B,F][K:bass][F,CF] [F,B,F]3 E-[F,E-][F,E] |[M:9/8] B,,3 B,,3 B,,3 |] %18
V:3
 x12 | F6- F2 z z3 | z3 [DF]6[K:bass][K:treble] z3 | z3 A,A,A, z2 e d2 c | %4
 [DB]2 [EG] z2[K:bass] G, F,3[K:treble] FDE | F6- F2 z z3 | %6
 [DB]2 [EG] z2[K:bass] F, B,3[K:treble] FFG | A3 z A,A, [Af]2 [Ac] [FA]2 [=EG] |[M:9/8] z3 F6 | %9
[M:3/8] x3 |[M:6/4] .F6 .F6 | [DB]2 [EG] D2 D D3 BAB | D3 D2 D D2 [Gd] [^Fd]2 [FA] | %13
 [DGB]2 [DAc] D2 B, D3 BAB | E3 E2 E z2 B [FA]2 [EG] | z2 z [DF]3- [DF]3 z z2 | c3 cde d4 A,A, | %17
[M:9/8] [B,D]3 [G,E]3 [F,D]3 |] %18
V:4
 x12 | z6 B,3 z3 | x5[K:bass] x4[K:treble] x3 | z6 A,3 z3 | x5[K:bass] x4[K:treble] x3 | %5
 z6 B,3 z3 | x5[K:bass] x4[K:treble] x3 | x12 |[M:9/8] x9 |[M:3/8] x3 |[M:6/4] x12 | x12 | x12 | %13
 x12 | z6 .E6 | x12 | x12 |[M:9/8] x9 |] %18
V:5
 x12 | z3 B,,B,,B,, z2 D [B,,B,]3 | x12 | z3 F,F,F, z2[K:treble] F F2 E | x12 | %5
 z3 B,,B,,B,, z2 D [B,,B,]3 | x9[K:treble] x3 | C3 [F,A,][K:bass]F,F, [F,C]3 [C,C]3 |[M:9/8] x9 | %9
[M:3/8] x3 |[M:6/4] z6 F,3 F,3 | z2 z F,3- F,3[K:treble] z z2 | z6[K:bass] G,3 D,3 | %13
 x9[K:treble] x3 | z6 .E,6 | x9[K:treble] x3 | z2 z .F,3[K:bass] z2 z .[F,A,]3 |[M:9/8] x9 |] %18
V:6
 x12 | z6 B,,3 z3 | x12 | z6 F,3[K:treble] [F,A,]3 | x12 | z6 B,,3 z3 | x9[K:treble] x3 | %7
 x4[K:bass] x8 |[M:9/8] x9 |[M:3/8] x3 |[M:6/4] x12 | x9[K:treble] x3 | x5[K:bass] x7 | %13
 x9[K:treble] x3 | x12 | x9[K:treble] x3 | x5[K:bass] x7 |[M:9/8] x9 |] %18

